!!!!SEGMENT: Distler_Jahrkreis_12_Ein-Laemmlein-geht-und-traegt-die-Schuld.krn
!!!COM: Distler, Hugo
!!!CDT: 1908-1942
!!!OPR@@DE: Der Jahrkreis
!!!OPR@EN: The Year Cycle
!!!OTL@@DE: Ein Laemmlein geht und traegt die Schuld
!!!OTL@EN: A Lambkin goes and bears the guilt
!!!OPS: 5
!!!ONM: 12
**kern	**text	**kern	**text	**kern	**text
*part3	*part3	*part2	*part2	*part1	*part1
*staff3	*staff3	*staff2	*staff2	*staff1	*staff1
*Ialto	*	*Isoprn	*	*Isoprn	*
*clefG2	*	*clefG2	*	*clefG2	*
*k[b-]	*	*k[b-]	*	*k[b-]	*
*MM120	*	*MM120	*	*MM120	*
*M6/4	*	*M6/4	*	*M6/4	*
4c	Ein	4r	.	4r	.
=1	=1	=1	=1	=1	=1
4d	Laemm-	4r	.	2r	.
4c	lein	4g	Ein	.	.
2A	geht	4a	Laemm-	2r	.
.	.	4g	lein	.	.
2c	und	2e	geht	4r	.
.	.	.	.	4cc	Ein
=2	=2	=2	=2	=2	=2
4B-	traegt	2g	und	4dd	Laemm-
4A	die	.	.	4cc	lein
2d,	Schuld	4f	traegt	2a	geht
.	.	4g	die	.	.
4c	der	2a,	Schuld	4cc	und
[4d	Welt_	.	.	[4b-	traegt
!!LO:LB:g=original
=3	=3	=3	=3	=3	=3
*M4/4	*	*M4/4	*	*M4/4	*
4d]	.	2g	der	4b-]	.
4e-	und	.	.	4b-	die
2f	ih-	4a	Welt	4a,	Schuld
.	.	4b-	und	4g	der
=4	=4	=4	=4	=4	=4
*M6/4	*	*M6/4	*	*M6/4	*
4e-	rer	(4cc	ih-	4a	Welt
4d	Kin-	4.b-	.	4b-	und
2c	der,	.	.	(2cc	ih-
.	.	8aL	.	.	.
.	.	8g	.	.	.
.	.	8fJ)	.	.	.
4r	.	4e	rer	4b-)	.
4c	es	([4f	Kin-	4a	rer
=5	=5	=5	=5	=5	=5
*M4/4	*	*M4/4	*	*M4/4	*
4d	geht	4f]	.	2g	Kin-
4c	und	4e)	.	.	.
4A	trae-	2f	der,	2f	der,
4c	get	.	.	.	.
!!LO:LB:g=original
=6	=6	=6	=6	=6	=6
*M6/4	*	*M6/4	*	*M6/4	*
2B-	mit	4r	.	2r	.
.	.	4g	es	.	.
4A	Ge-	4a	geht	2r	.
(2c	duld_	4g	und	.	.
.	.	2e	trae-	4r	.
8B-L	.	.	.	4cc	es
8AJ	.	.	.	.	.
=7	=7	=7	=7	=7	=7
8GL	.	2g	get	4dd	geht
8A	.	.	.	.	.
8B-	.	.	.	4cc	und
8cJ	.	.	.	.	.
2d,)	.	4f	mit	2a	trae-
.	.	4g	Ge-	.	.
4c	die	2a,	duld	4cc	get
[4d	Suen-	.	.	[4b-	mit_
=8	=8	=8	=8	=8	=8
*M4/4	*	*M4/4	*	*M4/4	*
4d]	.	2g	die	4b-]	.
4e-	den	.	.	4b-	Ge-
(4.f	al-	4a	Suen-	4a,	duld
.	.	4b-	den	4g	die
8g	.	.	.	.	.
!!LO:LB:g=original
=9	=9	=9	=9	=9	=9
8fL	.	(2cc	al-	(2a	Suen-
8e-J	.	.	.	.	.
4d)	.	.	.	.	.
4e-	ler	4b-)	.	4b-	.
[4c	Sün-	4a	ler	[4cc	.
=10	=10	=10	=10	=10	=10
4c]	.	(4.g	Suen-	8ccL]	.
.	.	.	.	8ddJ	.
2.g	der,	.	.	4.cc,	.
.	.	8f	.	.	.
.	.	4d	.	.	.
.	.	.	.	8ddL	.
.	.	4e)	.	8cc	.
.	.	.	.	8b-	.
=11	=11	=11	=11	=11	=11
2r	.	4f,	der,	8a	.
.	.	.	.	8b-J	.
.	.	(4.c	al-	4cc)	.
4r	.	.	.	4b-	den
.	.	8d)	.	.	.
[4c	al-	4e	ler	8a	al-
.	.	.	.	8b-	ler
=12	=12	=12	=12	=12	=12
4c]	.	(2f	Suen-	1g	Suen-
4B-	ler	.	.	.	.
2c	Suen-	2e)	.	.	.
=13	=13	=13	=13	=13	=13
*^		*	*	*	*	*
1f	1FN	der;	1f	der;	1f	der;
*v	*v	*	*	*	*	*
!!LO:LB:g=original
=||14	=||14	=||14	=||14	=||14	=||14
*M3/4	*	*M3/4	*	*M3/4	*
2.r	.	4f	es	4f	es
.	.	4f	geht	4g	geht
.	.	4f	da-	4a	da-
=15	=15	=15	=15	=15	=15
2.r	.	4e-	hin,	2b-	hin,
.	.	4d	wird	.	.
.	.	([4g	matt_	4g	wird
=16	=16	=16	=16	=16	=16
2.r	.	8gL]	.	4a	matt
.	.	8fJ	.	.	.
.	.	4e-)	.	2g	und
.	.	4f	und	.	.
=17	=17	=17	=17	=17	=17
4B-	er-	2d	krank,	2f	krank,
4d	gibt	.	.	.	.
4e-	sich	4r	.	4r	.
=18	=18	=18	=18	=18	=18
2f	auf	4B-	er-	4r	.
.	.	4d	gibt	4f	er-
4g	der	4e-	sich	4a	gibt
!!LO:LB:g=original
=19	=19	=19	=19	=19	=19
(8dL	Wuer-	2f	auf	4b-	sich
8enJ	.	.	.	.	.
4.f)	.	.	.	4cc	auf
.	.	4g	der	4dd	der
8e	ge-	.	.	.	.
=20	=20	=20	=20	=20	=20
2f	bank;	(4f	Wuer-	(4.a	Wuer-
.	.	8enL	.	.	.
.	.	8dJ)	.	8b	.
4r	.	4e	ge-	[4cc	.
=21	=21	=21	=21	=21	=21
2.r	.	2.f,	bank;	8ccL]	.
.	.	.	.	16b	.
.	.	.	.	16aJ	.
.	.	.	.	4b)	.
.	.	.	.	4b	ge-
=22	=22	=22	=22	=22	=22
*M4/4	*	*M4/4	*	*M4/4	*
4r	.	2e	ent-	2.cc	bank;
2A	ent-	.	.	.	.
.	.	4f	sa-	.	.
4c	sa-	4g	get	4r	.
=23	=23	=23	=23	=23	=23
4d	get	4f	al-	1r	.
(4.c	al-	4d	len	.	.
.	.	2e-	Freu-	.	.
8B-)	.	.	.	.	.
4A	len	.	.	.	.
!!LO:LB:g=original
=24	=24	=24	=24	=24	=24
2B-	Freu-	2d,	den;	2dd	er
[2A	den;_	4a	er	4dd	nimmt
.	.	([4b-	nimmt_	4dd	auf
=25	=25	=25	=25	=25	=25
2A]	.	4b-]	.	4g	sich
.	.	4a)	.	(2cc	Schmach,_
4r	.	4g	auf	.	.
4d	er	[4f	sich_	4b-)	.
=26	=26	=26	=26	=26	=26
2d	nimmt	4f]	.	2g	Hohn
.	.	(4.e	Schmach,_	.	.
4d	auf	.	.	2b-	und
.	.	8f	.	.	.
4G	sich	[4g	.	.	.
=27	=27	=27	=27	=27	=27
2c	Schmach,	8gL]	.	2.a	Spott,
.	.	8fJ	.	.	.
.	.	4e)	.	.	.
4B-	Hohn	4d	Hohn	.	.
4A	und	4c	und	4r	.
!!LO:LB:g=original
=28	=28	=28	=28	=28	=28
4G	Spott,	4d	Spott,	2b-	Angst,
4r	.	4r	.	.	.
2r	.	2f	Angst,	2a	Wun-
=29	=29	=29	=29	=29	=29
2c	Angst,	2e-	Wun-	4g	den,
.	.	.	.	2f	Strie-
2B-	Wun-	4d	den,	.	.
.	.	[4d	Strie-	4g	men,
=30	=30	=30	=30	=30	=30
4A,	den,	4d]	.	(2en	Kreuz_
4c	Angst,	4c	men,	.	.
4B-	Wun-	([2d	Kreuz	[2f	.
4A	den,	.	.	.	.
=31	=31	=31	=31	=31	=31
2B-	Kreuz	4d]	.	4f]	.
.	.	4c)	.	4e)	.
2B-	und	2B-	und	2d	und
=32	=32	=32	=32	=32	=32
1F	Tod	1A	Tod	2c,	Tod
.	.	.	.	2c	und
!!LO:LB:g=original
=33	=33	=33	=33	=33	=33
1r	.	2r	.	4f	spricht:
.	.	.	.	4g	ich
.	.	2c	und	4a	will's
.	.	.	.	4b-	gern
=34	=34	=34	=34	=34	=34
2F	und	4f	spricht:	(4.cc	lei-
.	.	4g	ich	.	.
.	.	.	.	8b-	.
4c	spricht:	4a	will's	4.a,	.
4d	ich	4b-	gern	.	.
.	.	.	.	8g	.
=35	=35	=35	=35	=35	=35
(4.f,	will's_	(4.cc	lei-	8aL	.
.	.	.	.	8b-	.
.	.	.	.	8cc	.
8dL	.	8b-	.	8ddJ	.
8f	.	4a	.	4.cc,	.
8gJ	.	.	.	.	.
4f)	.	4b-	.	.	.
.	.	.	.	8dd	.
=36	=36	=36	=36	=36	=36
4f	gern	2g)	.	4cc	.
2g	lei-	.	.	4b-)	.
.	.	2f;	den.	2cc;	den.
4a;	den.	.	.	.	.
==	==	==	==	==	==
*-	*-	*-	*-	*-	*-
!!!RDF**kern: N = cue size
!!!YOR: Bärenreiter-Ausgabe 676
!!!YOY: 1933
!!!EFL: 12/52
!!!URL-github: https://github.com/LucasHofmann/distler/blob/main/Jahrkreis/Distler_Jahrkreis_12_Ein-Laemmlein-geht-und-traegt-die-Schuld.krn
!!!URL-pdf: https://imslp.eu/files/imglnks/euimg/7/7d/IMSLP834545-PMLP518834-5-jahrkreis-EA--original-paper-600dpi.pdf#page=25 First edition, Kassel: Bärenreiter, 1933. Plate BA 676.
!!!URL-imslp: https://imslp.org/wiki/Der_Jahrkreis,_Op.5_(Distler,_Hugo)#IMSLP834545
!!!URL-youtube: https://www.youtube.com/watch?v=DHDCWnI2QD4 Ensemble Nobiles
!!!system-decoration: [(s1,s2,s3)]
!!!ENC: Lucas Hofmann
!!!END: 2023/10/16
!!!title: @{OPR@@DE}, Op. @{OPS}, Nr. @{ONM}. <i>@{OTL@@DE}</i>